X: 347
T: Zhangang fangshao
L: 1/8
M: 2/4
K: F
z2c c [I:setbarnb 1]| 
A c f d/ c/ | 
A c/ f/ d c/ A/ | 
G> AG2 | 
c A f d/ c/ | 
A c F D | 
A A/ c/ G/ F D/ | 
C> FC2 |]

@@@ Tune index: 9221
